assets/icons/qvision/web_asset.svg

<svg xmlns="http://www.w3.org/2000/svg" height="24" viewBox="0 0 24 24" width="24"><path d="M0 0h24v24H0z" fill="none"/><path d="M19 4H5c-1.11 0-2 .9-2 2v12c0 1.1.89 2 2 2h14c1.1 0 2-.9 2-2V6c0-1.1-.89-2-2-2zm0 14H5V8h14v10z"/></svg>

<svg width="24" height="24" viewBox="0 0 24 24" fill="none" xmlns="http://www.w3.org/2000/svg">
<g clip-path="url(#clip0_147_1717)">
<path d="M19 4H5C3.89 4 3 4.9 3 6V18C3 19.1 3.89 20 5 20H19C20.1 20 21 19.1 21 18V6C21 4.9 20.11 4 19 4ZM19 18H5V8H19V18Z" fill="#323232"/>
</g>
<defs>
<clipPath id="clip0_147_1717">
<rect width="24" height="24" fill="white"/>
</clipPath>
</defs>
</svg>
